svg/iphone_copyrighted.svg

<svg xmlns="http://www.w3.org/2000/svg" viewBox="0 0 32 32" enable-background="new 0 0 32 32"><path d="M 11 4 C 9.3545455 4 8 5.3545455 8 7 L 8 25 C 8 26.645455 9.3545455 28 11 28 L 21 28 C 22.645455 28 24 26.645455 24 25 L 24 7 C 24 5.3545455 22.645455 4 21 4 L 11 4 z M 11 6 L 21 6 C 21.554545 6 22 6.4454545 22 7 L 22 25 C 22 25.554545 21.554545 26 21 26 L 11 26 C 10.445455 26 10 25.554545 10 25 L 10 7 C 10 6.4454545 10.445455 6 11 6 z M 16 23 C 15.447715 23 15 23.447715 15 24 C 15 24.552285 15.447715 25 16 25 C 16.552285 25 17 24.552285 17 24 C 17 23.447715 16.552285 23 16 23 z" color="#000" overflow="visible" enable-background="accumulate"/></svg>

<svg xmlns="http://www.w3.org/2000/svg" viewBox="0 0 32 32"><path style="text-indent:0;text-align:start;line-height:normal;text-transform:none;block-progression:tb;-inkscape-font-specification:Bitstream Vera Sans" d="M11 4C9.355 4 8 5.355 8 7v18c0 1.645 1.355 3 3 3h10c1.645 0 3-1.355 3-3V7c0-1.645-1.355-3-3-3H11zm0 2h10c.555 0 1 .445 1 1v18c0 .555-.445 1-1 1H11c-.555 0-1-.445-1-1V7c0-.555.445-1 1-1zm5 17c-.552 0-1 .448-1 1s.448 1 1 1 1-.448 1-1-.448-1-1-1z" color="#000" overflow="visible" font-family="Bitstream Vera Sans"/></svg>
